images/whatsapp.svg

<svg width="20" height="20" viewBox="0 0 20 20" fill="none" xmlns="http://www.w3.org/2000/svg">
<g clip-path="url(#clip0)">
<path d="M3.33333 3.05176e-05C1.48667 3.05176e-05 0 1.48667 0 3.33332V16.6667C0 18.5133 1.48667 20 3.33333 20H16.6667C18.5133 20 20 18.5133 20 16.6667V3.33332C20 1.48667 18.5133 3.05176e-05 16.6667 3.05176e-05H3.33333ZM10 3.74999C13.4425 3.74999 16.25 6.55747 16.25 9.99999C16.25 13.4425 13.4425 16.25 10 16.25C9.04337 16.25 8.11492 15.9997 7.25912 15.5778L3.78255 16.2305L4.42382 12.7393C4.00194 11.8843 3.75 10.9551 3.75 9.99999C3.75 6.55747 6.55747 3.74999 10 3.74999ZM10 5.31249C7.40191 5.31249 5.3125 7.40191 5.3125 9.99999C5.3125 10.8009 5.51913 11.5871 5.91146 12.2836L6.04818 12.5293L5.72917 14.2756L7.46419 13.9502L7.71159 14.0899C8.40969 14.4824 9.19791 14.6873 10 14.6873C12.5981 14.6873 14.6875 12.5979 14.6875 9.9998C14.6875 7.40172 12.5981 5.3123 10 5.3123V5.31249ZM8.12988 6.97755C8.26068 6.97897 8.35396 6.98389 8.42936 6.99649C8.50477 7.00908 8.5661 7.02957 8.61328 7.07146C8.6562 7.10925 8.6837 7.16149 8.70606 7.22102C8.77356 7.3996 8.96443 8.03895 9.12109 8.44336C9.16909 8.56745 9.15326 8.68966 9.10317 8.79496C9.05308 8.90047 8.9758 8.99371 8.89646 9.07812C8.81713 9.16285 8.73471 9.24003 8.67836 9.30775C8.62186 9.37546 8.60119 9.42959 8.60352 9.45731C8.60686 9.4929 8.63969 9.58648 8.70118 9.69011C8.76268 9.79373 8.84792 9.91184 8.93718 10.0303C9.11572 10.2671 9.31995 10.5025 9.41082 10.595C9.50327 10.6857 9.73223 10.8885 9.96908 11.067C10.0875 11.1561 10.2055 11.2364 10.3092 11.2982C10.413 11.3596 10.5096 11.3993 10.5453 11.4025C10.5732 11.4049 10.6289 11.3772 10.6966 11.3211C10.7644 11.2648 10.8367 11.1873 10.9212 11.1079C11.0058 11.0286 11.0975 10.9495 11.2028 10.8995C11.3082 10.8494 11.4352 10.8285 11.5593 10.8774C11.9637 11.0339 12.6045 11.2249 12.7832 11.2924C12.8783 11.3283 12.9443 11.3929 12.9785 11.4779C13.0126 11.5629 13.0184 11.659 13.0241 11.7953C13.0299 11.9392 13.0151 12.1583 12.8646 12.378C12.7141 12.5975 12.4345 12.8153 11.9352 12.9704C11.4144 13.1323 10.7554 12.9421 10.1302 12.6254C9.50502 12.3086 8.91245 11.8586 8.52703 11.4731C8.14162 11.0877 7.69636 10.4934 7.37958 9.86821C7.06275 9.24302 6.87276 8.58403 7.03453 8.06321C7.17992 7.59514 7.37371 7.32566 7.57652 7.16969C7.77932 7.01379 7.98751 6.97761 8.1299 6.97918L8.12988 6.97755Z" fill="white"/>
</g>
<defs>
<clipPath id="clip0">
<rect width="20" height="20" fill="white"/>
</clipPath>
</defs>
</svg>

<svg xmlns="http://www.w3.org/2000/svg" width="20" height="20" fill="none"  xmlns:v="https://vecta.io/nano"><g clip-path="url(#A)"><path d="M3.333 0C1.487 0 0 1.487 0 3.333v13.333C0 18.513 1.487 20 3.333 20h13.333C18.513 20 20 18.513 20 16.667V3.333C20 1.487 18.513 0 16.667 0H3.333zM10 3.75c3.443 0 6.25 2.807 6.25 6.25s-2.807 6.25-6.25 6.25c-.957 0-1.885-.25-2.74-.672l-3.477.653.64-3.49c-.422-.855-.674-1.784-.674-2.74 0-3.443 2.807-6.25 6.25-6.25zm0 1.563c-2.598 0-4.687 2.09-4.687 4.688a4.65 4.65 0 0 0 .599 2.284l.137.246-.32 1.746 1.735-.325.247.14a4.67 4.67 0 0 0 2.288.597c2.598 0 4.688-2.09 4.688-4.687S12.598 5.312 10 5.312h0zM8.13 6.978c.13.001.224.006.3.02s.137.033.184.075.07.1.093.15l.415 1.222c.048.124.032.246-.018.352s-.127.2-.207.283l-.218.23c-.056.068-.077.122-.075.15.003.036.036.13.098.233s.147.222.236.34c.18.237.383.472.474.565a6.61 6.61 0 0 0 .558.472l.34.23c.104.06.2.1.236.104.028.002.084-.025.15-.08s.14-.134.225-.213.176-.158.282-.208.232-.07.357-.022l1.224.415c.095.036.16.1.195.185s.04.18.046.317c.006.144-.01.363-.16.583s-.43.437-.93.592c-.52.162-1.18-.028-1.805-.345s-1.218-.767-1.603-1.152-.83-.98-1.147-1.605-.507-1.284-.345-1.805c.145-.468.34-.738.542-.894a.89.89 0 0 1 .553-.191v-.002z" fill="#fff"/></g><defs><clipPath id="A"><path fill="#fff" d="M0 0h20v20H0z"/></clipPath></defs></svg>
